app/images/customer-modal/third-modal/subscribe.svg

<svg width="100" height="107" viewBox="0 0 100 107" fill="none" xmlns="http://www.w3.org/2000/svg">
<path d="M90.0072 72.9545H86.9517C87.2257 72.0405 87.3673 71.0839 87.3673 70.1041V9.89577C87.3673 4.43932 82.9279 0 77.4715 0H9.89577C4.43932 0 0 4.43932 0 9.89577V28.7147C0 29.5776 0.699597 30.2772 1.56243 30.2772C2.42527 30.2772 3.12487 29.5776 3.12487 28.7147V21.5372H52.0465C52.9094 21.5372 53.609 20.8376 53.609 19.9748C53.609 19.1119 52.9094 18.4123 52.0465 18.4123H3.12487V9.89577C3.12487 6.16229 6.16229 3.12487 9.89577 3.12487H77.4715C81.205 3.12487 84.2424 6.16229 84.2424 9.89577V18.4123H72.0792V16.0737C72.0792 14.293 70.6306 12.8445 68.85 12.8445H65.7262C63.8706 12.8445 62.2132 13.9522 61.5036 15.6668C59.2953 21.0017 54.1376 24.4491 48.3637 24.4491H23.048C19.889 24.4491 17.3188 27.0193 17.3188 30.1783V31.2606H12.8701C9.73586 31.2606 7.18608 33.8104 7.18608 36.9446C7.18608 40.0788 9.73586 42.6286 12.8701 42.6286H17.319V43.7107C17.319 46.8697 19.8892 49.4399 23.0482 49.4399H26.7813L29.5147 54.6353C29.9182 55.4065 30.8768 55.6886 31.6249 55.2905C32.3887 54.8887 32.682 53.9438 32.2802 53.1803L30.3124 49.4401H42.2116L41.6771 55.2372C41.3081 59.238 42.8537 63.2499 45.8116 65.9692L46.3529 66.4668C45.2723 67.7658 44.6212 69.4342 44.6212 71.252V71.5684L42.9072 72.3322C42.6573 72.4436 42.3617 72.3413 42.2345 72.099L35.5571 59.4081C35.1552 58.6444 34.2103 58.351 33.4468 58.7529C32.6831 59.1547 32.3897 60.0996 32.7916 60.8631L39.4688 73.554C40.1167 74.7858 41.387 75.5466 42.7032 75.5012C43.7536 75.465 44.6212 74.9898 44.6212 74.9898V76.8756H9.89577C6.16229 76.8756 3.12487 73.8382 3.12487 70.1047V36.3739C3.12487 35.511 2.42527 34.8114 1.56243 34.8114C0.699597 34.8114 0 35.511 0 36.3739V70.1043C0 75.5609 4.43932 80.0001 9.89577 80.0001H44.621V89.9148C44.621 94.047 47.9828 97.4086 52.1148 97.4086H61.8074V99.1116C61.8074 103.244 65.1692 106.605 69.3012 106.605H90.007C94.1392 106.605 97.5008 103.244 97.5008 99.1116V80.4485C97.501 76.3161 94.1394 72.9545 90.0072 72.9545ZM94.3762 80.4483V83.0094H80.3147V76.0794H90.0072C92.4162 76.0794 94.3762 78.0393 94.3762 80.4483ZM47.7461 71.2515C47.7461 68.8425 49.706 66.8828 52.115 66.8828H72.8208C75.2299 66.8828 77.1898 68.8427 77.1898 71.2515V73.8126H47.7463V71.2515H47.7461ZM72.0792 30.2836C75.6394 30.4161 78.4955 33.3523 78.4955 36.9442C78.4955 40.5361 75.6394 43.4723 72.0792 43.6047V30.2836ZM64.3911 16.8618C64.6156 16.3198 65.1394 15.9696 65.7262 15.9696H68.85C68.9075 15.9696 68.9541 16.0162 68.9541 16.0737V57.8149C68.9541 57.8724 68.9075 57.919 68.85 57.919H65.7262C65.1394 57.919 64.6153 57.5688 64.3911 57.0266C61.6977 50.5193 55.4067 46.3144 48.3639 46.3144H42.3098V27.5737H48.3639C55.4065 27.5739 61.6977 23.3691 64.3911 16.8618ZM12.8701 39.5033C11.459 39.5033 10.3112 38.3554 10.3112 36.9444C10.3112 35.5333 11.459 34.3854 12.8701 34.3854H17.319V39.5035H12.8701V39.5033ZM20.4441 43.7105V30.1781C20.4441 28.742 21.6124 27.5739 23.0482 27.5739H32.5975V46.3148H23.0482C21.6122 46.3146 20.4441 45.1463 20.4441 43.7105ZM35.7226 46.3146V27.5737H39.1848V46.3144H35.7226V46.3146ZM48.3639 49.4397C54.1378 49.4397 59.2955 52.8869 61.5038 58.2219C62.2134 59.9364 63.8708 61.0443 65.7264 61.0443H68.8502C70.6308 61.0443 72.0794 59.5957 72.0794 57.8151V46.7302C77.363 46.5963 81.6208 42.2599 81.6208 36.9446C81.6208 31.6293 77.363 27.2929 72.0794 27.159V21.5376H84.2426V70.1045C84.2426 71.1056 84.0238 72.0696 83.6113 72.9549H80.3151V71.252C80.3151 67.1197 76.9533 63.7581 72.8213 63.7581H52.1155C50.943 63.7581 49.8328 64.0294 48.8436 64.5115L47.9266 63.6686C47.5612 63.3328 47.2274 62.9684 46.9203 62.5849C49.032 61.758 50.5322 59.7019 50.5322 57.3006C50.5322 54.269 48.1423 51.7852 45.1476 51.6343L45.35 49.4401H48.3639V49.4397ZM45.3539 59.7996C44.8588 58.4454 44.6541 56.9841 44.7888 55.5237L44.86 54.7517C46.2646 54.7525 47.4071 55.8954 47.4071 57.3002C47.4071 58.5357 46.5228 59.568 45.3539 59.7996ZM47.7461 89.9148V76.9376H77.1896V89.9148C77.1896 92.3238 75.2297 94.2837 72.8206 94.2837H52.1148C49.706 94.2835 47.7461 92.3238 47.7461 89.9148ZM90.0072 103.48H69.3014C66.8924 103.48 64.9327 101.52 64.9327 99.1114V97.4084H68.9941C68.9841 97.4796 68.9772 97.5516 68.9772 97.6255C68.9772 98.4886 69.6768 99.188 70.5396 99.188H89.033C89.8958 99.188 90.5954 98.4884 90.5954 97.6255C90.5954 96.7627 89.8958 96.0631 89.033 96.0631H77.0971C78.2692 95.2455 79.1974 94.1026 79.7496 92.7654H89.0328C89.8956 92.7654 90.5952 92.0658 90.5952 91.203C90.5952 90.3401 89.8956 89.6405 89.0328 89.6405H80.3142V86.1344H94.3757V99.1116C94.3762 101.521 92.4162 103.48 90.0072 103.48Z" fill="#D74255"/>
<path d="M8.94116 10.9089C8.94116 13.613 11.1411 15.813 13.8452 15.813C16.5493 15.813 18.7493 13.613 18.7493 10.9089C18.7493 8.20487 16.5493 6.00488 13.8452 6.00488C11.1411 6.00488 8.94116 8.20487 8.94116 10.9089ZM15.6244 10.9089C15.6244 11.8898 14.8263 12.6879 13.8454 12.6879C12.8645 12.6879 12.0664 11.8898 12.0664 10.9089C12.0664 9.92804 12.8645 9.12996 13.8454 9.12996C14.8263 9.12996 15.6244 9.92784 15.6244 10.9089Z" fill="#D74255"/>
<path d="M25.3847 9.55273C24.5219 9.55273 23.8223 10.2523 23.8223 11.1152C23.8223 11.978 24.5219 12.6776 25.3847 12.6776H37.89C38.7528 12.6776 39.4524 11.978 39.4524 11.1152C39.4524 10.2523 38.7528 9.55273 37.89 9.55273H25.3847Z" fill="#D74255"/>
<path d="M44.5412 9.55273C43.6784 9.55273 42.9788 10.2523 42.9788 11.1152C42.9788 11.978 43.6784 12.6776 44.5412 12.6776H49.0692C49.9321 12.6776 50.6316 11.978 50.6316 11.1152C50.6316 10.2523 49.9321 9.55273 49.0692 9.55273H44.5412Z" fill="#D74255"/>
<path d="M98.4376 36.8403H92.3178C91.455 36.8403 90.7554 37.5399 90.7554 38.4028C90.7554 39.2656 91.455 39.9652 92.3178 39.9652H98.4376C99.3005 39.9652 100 39.2656 100 38.4028C100 37.5399 99.3005 36.8403 98.4376 36.8403Z" fill="#D74255"/>
<path d="M92.3184 27.3693C92.6824 27.3693 93.048 27.2429 93.3439 26.9851L97.9065 23.0124C98.5573 22.4459 98.6256 21.4587 98.0589 20.808C97.4923 20.1572 96.5052 20.0889 95.8545 20.6556L91.2919 24.6284C90.6411 25.1949 90.5728 26.182 91.1395 26.8327C91.4483 27.1877 91.8822 27.3693 92.3184 27.3693Z" fill="#D74255"/>
<path d="M97.9065 53.7924L93.3439 49.8197C92.6932 49.2529 91.7061 49.3212 91.1395 49.9721C90.5728 50.6228 90.6411 51.6099 91.2919 52.1765L95.8545 56.1492C96.1504 56.4069 96.516 56.5333 96.88 56.5333C97.3162 56.5333 97.7501 56.3516 98.0589 55.9968C98.6254 55.3461 98.5573 54.359 97.9065 53.7924Z" fill="#D74255"/>
<path d="M73.409 82.0063C73.409 81.1434 72.7094 80.4438 71.8465 80.4438H53.3532C52.4904 80.4438 51.7908 81.1434 51.7908 82.0063C51.7908 82.8691 52.4904 83.5687 53.3532 83.5687H71.8465C72.7096 83.5687 73.409 82.8693 73.409 82.0063Z" fill="#D74255"/>
<path d="M65.3063 86.8667H53.3532C52.4904 86.8667 51.7908 87.5663 51.7908 88.4291C51.7908 89.2922 52.4904 89.9916 53.3532 89.9916H65.3063C66.1692 89.9916 66.8688 89.292 66.8688 88.4291C66.8688 87.5663 66.1692 86.8667 65.3063 86.8667Z" fill="#D74255"/>
</svg>

<svg width="100" height="107" fill="none" xmlns="http://www.w3.org/2000/svg"><path d="M90.007 72.954h-3.055c.274-.913.415-1.87.415-2.85V9.896c0-5.457-4.44-9.896-9.895-9.896H9.896C4.439 0 0 4.44 0 9.896v18.819a1.563 1.563 0 003.125 0v-7.178h48.922a1.563 1.563 0 000-3.125H3.125V9.896a6.779 6.779 0 016.77-6.771h67.577a6.779 6.779 0 016.77 6.77v8.517H72.08v-2.338c0-1.781-1.448-3.23-3.229-3.23h-3.124a4.556 4.556 0 00-4.222 2.823 14.179 14.179 0 01-13.14 8.782H23.048a5.736 5.736 0 00-5.73 5.73v1.082H12.87a5.69 5.69 0 00-5.684 5.684 5.69 5.69 0 005.684 5.684h4.449v1.082c0 3.159 2.57 5.729 5.73 5.729h3.732l2.734 5.195a1.564 1.564 0 002.765-1.455l-1.968-3.74h11.9l-.535 5.797c-.369 4.001 1.177 8.013 4.135 10.732l.54.498a7.46 7.46 0 00-1.73 4.785v.316l-1.715.764a.522.522 0 01-.672-.233l-6.678-12.69a1.562 1.562 0 00-2.765 1.454l6.677 12.691c.648 1.232 1.918 1.993 3.234 1.947a4.799 4.799 0 001.918-.511v1.886H9.896a6.779 6.779 0 01-6.771-6.771V36.374a1.563 1.563 0 00-3.125 0v33.73C0 75.561 4.44 80 9.896 80H44.62v9.915c0 4.132 3.362 7.494 7.494 7.494h9.692v1.703c0 4.132 3.362 7.493 7.494 7.493h20.706c4.132 0 7.494-3.361 7.494-7.493V80.449c0-4.133-3.362-7.495-7.494-7.495zm4.37 7.494v2.561H80.314v-6.93h9.692a4.374 4.374 0 014.37 4.37zm-46.63-9.197a4.374 4.374 0 014.368-4.368h20.706c2.409 0 4.369 1.96 4.369 4.368v2.562H47.746V71.25zm24.332-40.967c3.56.132 6.417 3.068 6.417 6.66s-2.857 6.528-6.417 6.66v-13.32zm-7.688-13.422a1.44 1.44 0 011.335-.892h3.124c.058 0 .104.046.104.104v41.74a.104.104 0 01-.104.105h-3.124a1.44 1.44 0 01-1.335-.892 17.294 17.294 0 00-16.027-10.713H42.31v-18.74h6.054A17.294 17.294 0 0064.39 16.862zm-51.52 22.641a2.562 2.562 0 01-2.56-2.559 2.562 2.562 0 012.56-2.559h4.448v5.119H12.87zm7.573 4.208V30.178a2.607 2.607 0 012.604-2.604h9.55v18.74h-9.55a2.607 2.607 0 01-2.604-2.603zm15.279 2.604V27.574h3.462v18.74h-3.462zm12.64 3.125a14.179 14.179 0 0113.14 8.782 4.556 4.556 0 004.223 2.822h3.124c1.78 0 3.23-1.448 3.23-3.229V46.73c5.283-.134 9.54-4.47 9.54-9.785 0-5.316-4.257-9.652-9.54-9.786v-5.621h12.163v48.567a6.721 6.721 0 01-.632 2.85h-3.296v-1.703c0-4.132-3.362-7.494-7.494-7.494H52.115a7.448 7.448 0 00-3.271.753l-.917-.842c-.366-.336-.7-.7-1.007-1.084a5.682 5.682 0 003.612-5.284 5.68 5.68 0 00-5.384-5.667l.202-2.194h3.014zm-3.01 10.36a9.834 9.834 0 01-.564-4.276l.071-.772a2.551 2.551 0 012.547 2.548 2.553 2.553 0 01-2.053 2.5zm2.393 30.115V76.938H77.19v12.977a4.374 4.374 0 01-4.37 4.369H52.116a4.374 4.374 0 01-4.369-4.37zm42.261 13.565H69.301a4.374 4.374 0 01-4.368-4.369v-1.703h4.061a1.562 1.562 0 001.545 1.78h18.494a1.563 1.563 0 000-3.125H77.097a7.534 7.534 0 002.653-3.298h9.283a1.563 1.563 0 000-3.124h-8.719v-3.507h14.062v12.978c0 2.409-1.96 4.368-4.369 4.368z" fill="#D74255"/><path d="M8.941 10.909a4.91 4.91 0 004.904 4.904 4.91 4.91 0 004.904-4.904 4.91 4.91 0 00-4.904-4.904 4.91 4.91 0 00-4.904 4.904zm6.683 0c0 .98-.798 1.779-1.779 1.779-.98 0-1.779-.798-1.779-1.78 0-.98.798-1.778 1.78-1.778.98 0 1.778.798 1.778 1.779zM25.385 9.553a1.563 1.563 0 000 3.125H37.89a1.563 1.563 0 000-3.125H25.385zM44.541 9.553a1.563 1.563 0 000 3.125h4.528a1.562 1.562 0 000-3.125h-4.528zM98.438 36.84h-6.12a1.563 1.563 0 000 3.125h6.12a1.562 1.562 0 000-3.125zM92.318 27.37c.364 0 .73-.127 1.026-.385l4.563-3.973a1.562 1.562 0 10-2.052-2.356l-4.563 3.972a1.562 1.562 0 001.026 2.741zM97.906 53.792l-4.562-3.972a1.562 1.562 0 10-2.052 2.356l4.563 3.973a1.558 1.558 0 002.204-.152 1.563 1.563 0 00-.153-2.205zM73.409 82.006c0-.863-.7-1.562-1.563-1.562H53.354a1.563 1.563 0 000 3.125h18.494c.863 0 1.562-.7 1.562-1.563zM65.306 86.867H53.353a1.563 1.563 0 000 3.125h11.953a1.563 1.563 0 000-3.125z" fill="#D74255"/></svg>
